X:290
T:Though in the Midst of Life We Be
%%stretchlast false
M:4/4
L:1/4
K:Bb clef=C1
"^iii"[DAdf] "^I"[B,Bdf] "^IV"[EBeg] "^vii°¹"[Ccea] | "^I"[B,Fdb]3/4 "^Imaj7³"[A,Fdb]/4 "^♭v°¹"[G,G=eb] "^V"[F,cfa] "^V/V"[Cc=eg] | "^V"[Fcfa] "^I¹"[Ddfb] "^ii"[Cegc'] "^IV"[EBeg] | "^I"[B,Bdf]/ [B,Bd]/4 "^I7"[B,Ad]/4 "^ii"[CGce] "^VI"[G,G=Bd]2 | "^iii"[DAdf] "^I"[B,Bdf] "^IV"[EBeg] "^vii°¹"[Ccea] | "^I"[B,Fdb]3/4 "^Imaj7³"[A,Fdb]/4 "^♭v°¹"[G,G=eb] "^V"[F,cfa] "^V/V"[Cc=eg] | "^V"[Fcfa] "^I¹"[Ddfb] "^ii"[Cegc'] "^IV"[EBeg] | "^I"[B,Bdf]/ [B,Bd]/4 "^I7"[B,Ad]/4 "^ii"[CGce] "^V/ii"[G,G=Bd] "^ii"[CG]/ "^ii7³"[B,EBc]/ | "^I"[B,FBd]/ "^vi7"[G,FBd]/ "^vi"[G,GBd]/ "^iii"[F,Gcd]/ "^V"[F,Acf]/ "^vi"[G,ABf]/ "^IV¹"[G,GBe]/ "^IV²"[B,GBe]/ | "^I"[B,FBd]/ "^iii¹"[F,FAd]/ "^V"[F,FAc]/ "^i"[B,FBc]/ "^I"[B,DB]/ [B,DB]/ [B,d]/ [B,DBd]/ | "^I¹"[DBf] "^iv"[EBef] "^vi"[FBcg] "^vii"[GAga] | "^vi"[G,dgb] "^I¹"[Ddfb] "^vii°²"[Ecea]3/4 "^vii°"[EAea]/4 "^vi"[FBcg] | "^iii"[DAfa] "^vi"[Cdgb] "^ii¹"[Eec'] "^vi¹"[B,Bdg] | "^i"[CBcf]/ "^I"[CBcd]/ "^IV"[DGAe] "^III"[D_GAd] "^vimaj7"[G,_GBd] | "^vi"[G,Bg] "^vii"[A,Dcg] "^i"[B,FBf] "^iii"[CFGd] | "^v7"[F,ce] "^VI"[G,_A=Bf] [G,G=Bd] "^vi"[G,Gd] | "^vi7"[G,Bdf] "^V¹"[A,Bcf] "^i"[B,FBf] "^iii"[CFGd] | "^v7"[F,ce] "^VI"[G,_A=Bf] [G,G=Bd] "^vi"[Gd] | [GBdg] "^vi²"[DBdg] "^V"[EABf] "^vi7²"[DGfg] | "^V7²"[CFea] "^iii7³"[CFda] [CFda]/ "^V7²"[CFea]/ "^V"[F,Ffa] | "^vii"[G,cda]3/4 "^iii7²"[A,cda]/4 "^vi¹"[B,Bdg] "^i"[CBcf]3/4 "^V²"[CAcf]/4 "^IV²"[B,FGe] | "^I"[B,FBd] [CBcd] "^ii²"[G,Ecd] "^vi¹"[B,Bdg] | "^i"[CBcf] "^VI+"[G,G=Be] "^VI"[G,G=Bd] "^vi"[G,Gd] | "^vi²"[DBdg] "^V"[EABf] "^ii"[CGeg] "^I"[B,cda] | "^II"[CF=eb] "^V/V"[Fcfg] "^V"[FAf] "^iii"[G,Adf] | "^vi²"[DGdb] "^V7²"[CFea] "^ii7¹"[EGBc'] "^vi¹"[B,Gdg]/ [B,Adg]/ | "^i"[CBcf] "^VI+"[G,G=Be] "^V/ii"[G,G=Bd] "^ii"[CGd] | "^ii7²"[G,EBc] "^vi¹"[B,Ddg] "^i"[CBcf] "^IV¹"[G,GBe]/ "^iv°¹"[_G,GAe]/ | "^vi"[G,GBd]/ [G,DBd]/ [DGAd] "^III"[D_GAd]2 |]
